!!!OTL: Die Vogelhochzeit (49), S.156
!!!id: T0183
**kern
*clefG2
*k[]
*G:
{8d
=1
4g
8r
8g
=2
8g
8a
8b
8b
=3
4b}
=4
{8g
8b
=5
8dd
8b
16a
16a
8dd
=6
8dd}
16r
=7
{16g
8g
8g
=8
8g
16r
16a
8a
8a
=9
8a}
16r
=10
{16b
8b
8b
=11
8dd
16cc
16b
8a
8dd
=12
8dd}
16r
=13
{16g
8g
8g
=14
8g
16r
16a
8a
8a
=15
8a}
16r
=16
{16b
8b
8b
=17
8dd
16cc
16b
8a
8dd
=18
8g}
4r
==
*-
!!!minrhy: 16
!!!meters: 2/4 ]  ZZ[6
!!!cut: Die Vogelhochzeit (49), S.156
!!!reg: Luxemburg
!!!trd: Singendes Volk, Esch-Alzette 1937 posth.
!!!rhy1: X_  X__0_X_  X_X_X_X_  X__
!!!rhy2: X_X_  X_X_XXX_  X_0
!!!key: T0183  16  G 2/4 ]  ZZ[6
!!!mod: PENTATONIK DUR ?]  AMBITUS[8
!!!kad: 352521
!!!akz: 113_55_12_55_12_51_
!!!fot: 'a__b__c__bw_c__d__
!!!for: 'a__b__c__c__c__cv_
!!!fok: '/__~a_/__~a_/__^d_
!! PHRAS[AUFTAKTIG]
!!!fkt: Liebeslieder
!!!bem: Reuland, hhh Ferd Freylinger, 1910
!! THILL, Mathias:
!! PR[25] 2K[6] 2G[8] 3K[6] 3G[8] 4A[8] 4Ü[0] 5A[0] 6K[0] 6G[0]
!! 7K[0] 7G[0] 8A[0] MEHR[0] SI[36] ABS[36] SR[14] SP[22]
!! ST[8] 2k[8] 2g[22] 3k[6] 3g[0] 4d[0] 4ü[0] 5d[3] 6k[0] 6g[0]
!! 7k[0] 7g[0] 8d[0] mehr[0] si[39] dm[-3] sr[31] sp[8]
!! 1F[24] 2F[56] 3F[10] 4F[0] LF[0] 2P[0] 3P[10] 4P[0] TRI[0] DF[4] AB[41]
!! TF[0] U3K[0] U3[0] U4[0] U4Ü[0] U5[8] U6K[0] U6[0] U7K[0] U7[3]
!! N1[8] N2K[0] N2[14] N3K[0] N3[27] N4[14] N4Ü[0] N5[19] N6K[0] N6[8]
!!!n7k: 0] N7[0] O1[0] O2K[0] O2[0] O3K[0] O3[0] HÖ[0
